icons/projectorB.svg

<svg width="24" height="24" viewBox="0 0 24 24" fill="none" xmlns="http://www.w3.org/2000/svg">
<path d="M19.65 6.69995H4.14995C3.44995 6.69995 2.94995 7.19995 2.94995 7.89995V13.9C2.94995 14.6 3.54995 15.2 4.24995 15.2H19.75C20.45 15.2 21.05 14.6 21.05 13.9V7.89995C20.95 7.19995 20.35 6.69995 19.65 6.69995ZM16.55 12.5C15.65 12.5 14.95 11.8 14.95 10.9C14.95 9.99995 15.65 9.29995 16.55 9.29995C17.45 9.29995 18.15 9.99995 18.15 10.9C18.15 11.8 17.45 12.5 16.55 12.5Z" fill="black"/>
<path fill-rule="evenodd" clip-rule="evenodd" d="M2.19995 7.89995C2.19995 6.78574 3.03574 5.94995 4.14995 5.94995H19.65C20.7099 5.94995 21.6378 6.71143 21.7924 7.79389L21.8 7.84665V13.9C21.8 15.0142 20.8642 15.95 19.75 15.95H4.24995C3.13574 15.95 2.19995 15.0142 2.19995 13.9V7.89995ZM4.14995 7.44995C3.86416 7.44995 3.69995 7.61416 3.69995 7.89995V13.9C3.69995 14.1857 3.96416 14.45 4.24995 14.45H19.75C20.0357 14.45 20.3 14.1857 20.3 13.9V7.9634C20.2374 7.66737 19.9746 7.44995 19.65 7.44995H4.14995ZM16.55 10.05C16.0642 10.05 15.7 10.4142 15.7 10.9C15.7 11.3857 16.0642 11.75 16.55 11.75C17.0357 11.75 17.4 11.3857 17.4 10.9C17.4 10.4142 17.0357 10.05 16.55 10.05ZM14.2 10.9C14.2 9.58574 15.2357 8.54995 16.55 8.54995C17.8642 8.54995 18.9 9.58574 18.9 10.9C18.9 12.2142 17.8642 13.25 16.55 13.25C15.2357 13.25 14.2 12.2142 14.2 10.9Z" fill="black"/>
<path d="M16.55 12.4999C17.4336 12.4999 18.15 11.7836 18.15 10.8999C18.15 10.0163 17.4336 9.29993 16.55 9.29993C15.6663 9.29993 14.95 10.0163 14.95 10.8999C14.95 11.7836 15.6663 12.4999 16.55 12.4999Z" fill="white"/>
<path fill-rule="evenodd" clip-rule="evenodd" d="M16.55 10.0499C16.0805 10.0499 15.7 10.4305 15.7 10.8999C15.7 11.3694 16.0805 11.7499 16.55 11.7499C17.0194 11.7499 17.4 11.3694 17.4 10.8999C17.4 10.4305 17.0194 10.0499 16.55 10.0499ZM14.2 10.8999C14.2 9.60206 15.2521 8.54993 16.55 8.54993C17.8478 8.54993 18.9 9.60206 18.9 10.8999C18.9 12.1978 17.8478 13.2499 16.55 13.2499C15.2521 13.2499 14.2 12.1978 14.2 10.8999Z" fill="white"/>
<path fill-rule="evenodd" clip-rule="evenodd" d="M5.69995 10.8999C5.69995 10.4857 6.03574 10.1499 6.44995 10.1499H11.05C11.4642 10.1499 11.8 10.4857 11.8 10.8999C11.8 11.3141 11.4642 11.6499 11.05 11.6499H6.44995C6.03574 11.6499 5.69995 11.3141 5.69995 10.8999Z" fill="white"/>
<path fill-rule="evenodd" clip-rule="evenodd" d="M6.05005 14.45C6.46426 14.45 6.80005 14.7857 6.80005 15.2V17.3C6.80005 17.7142 6.46426 18.05 6.05005 18.05C5.63584 18.05 5.30005 17.7142 5.30005 17.3V15.2C5.30005 14.7857 5.63584 14.45 6.05005 14.45Z" fill="black"/>
<path fill-rule="evenodd" clip-rule="evenodd" d="M17.75 14.45C18.1642 14.45 18.5 14.7857 18.5 15.2V17.3C18.5 17.7142 18.1642 18.05 17.75 18.05C17.3358 18.05 17 17.7142 17 17.3V15.2C17 14.7857 17.3358 14.45 17.75 14.45Z" fill="black"/>
</svg>

<svg xmlns="http://www.w3.org/2000/svg" fill="none" viewBox="0 0 24 24">
  <path fill="#000" d="M19.65 6.7H4.15c-.7 0-1.2.5-1.2 1.2v6c0 .7.6 1.3 1.3 1.3h15.5c.7 0 1.3-.6 1.3-1.3v-6c-.1-.7-.7-1.2-1.4-1.2Zm-3.1 5.8c-.9 0-1.6-.7-1.6-1.6 0-.9.7-1.6 1.6-1.6.9 0 1.6.7 1.6 1.6 0 .9-.7 1.6-1.6 1.6Z"/>
  <path fill="#000" fill-rule="evenodd" d="M2.2 7.9c0-1.114.836-1.95 1.95-1.95h15.5a2.15 2.15 0 0 1 2.142 1.844l.008.053V13.9c0 1.114-.936 2.05-2.05 2.05H4.25A2.073 2.073 0 0 1 2.2 13.9v-6Zm1.95-.45c-.286 0-.45.164-.45.45v6c0 .286.264.55.55.55h15.5c.286 0 .55-.264.55-.55V7.963a.653.653 0 0 0-.65-.513H4.15Zm12.4 2.6a.83.83 0 0 0-.85.85c0 .486.364.85.85.85a.83.83 0 0 0 .85-.85.83.83 0 0 0-.85-.85Zm-2.35.85a2.33 2.33 0 0 1 2.35-2.35 2.33 2.33 0 0 1 2.35 2.35 2.33 2.33 0 0 1-2.35 2.35 2.33 2.33 0 0 1-2.35-2.35Z" clip-rule="evenodd"/>
  <path fill="#fff" d="M16.55 12.5a1.6 1.6 0 1 0 0-3.2 1.6 1.6 0 0 0 0 3.2Z"/>
  <path fill="#fff" fill-rule="evenodd" d="M16.55 10.05a.85.85 0 1 0 0 1.7.85.85 0 0 0 0-1.7Zm-2.35.85a2.35 2.35 0 1 1 4.7 0 2.35 2.35 0 0 1-4.7 0Zm-8.5 0a.75.75 0 0 1 .75-.75h4.6a.75.75 0 0 1 0 1.5h-4.6a.75.75 0 0 1-.75-.75Z" clip-rule="evenodd"/>
  <path fill="#000" fill-rule="evenodd" d="M6.05 14.45a.75.75 0 0 1 .75.75v2.1a.75.75 0 0 1-1.5 0v-2.1a.75.75 0 0 1 .75-.75Zm11.7 0a.75.75 0 0 1 .75.75v2.1a.75.75 0 0 1-1.5 0v-2.1a.75.75 0 0 1 .75-.75Z" clip-rule="evenodd"/>
</svg>
